src/assets/bell.svg

<svg width="18" height="18" viewBox="0 0 18 18" fill="none" xmlns="http://www.w3.org/2000/svg">
<mask id="mask0_101_7" style="mask-type:alpha" maskUnits="userSpaceOnUse" x="2" y="0" width="15" height="18">
<path d="M7.554 14.813H10.737C10.6202 15.1417 10.4045 15.4261 10.1195 15.6273C9.83457 15.8284 9.49431 15.9364 9.1455 15.9364C8.79669 15.9364 8.45643 15.8284 8.17146 15.6273C7.88649 15.4261 7.6708 15.1417 7.554 14.813V14.813ZM9.146 17.063C9.89188 17.0627 10.6071 16.7662 11.1344 16.2387C11.6618 15.7112 11.958 14.9959 11.958 14.25C11.958 14.1009 11.8988 13.9578 11.7935 13.8522C11.6881 13.7467 11.5451 13.6873 11.396 13.687H3.896C3.586 13.687 3.355 13.673 3.197 13.647C3.215 13.611 3.237 13.57 3.263 13.524C3.299 13.459 3.617 12.919 3.723 12.724C4.2 11.849 4.458 11.048 4.458 10.125V6.75C4.458 4.094 6.515 2.062 9.146 2.062C11.776 2.062 13.833 4.094 13.833 6.75V10.125C13.833 11.048 14.091 11.849 14.569 12.725C14.675 12.919 14.993 13.459 15.029 13.524C15.055 13.57 15.076 13.611 15.094 13.647C14.937 13.673 14.705 13.687 14.396 13.687C14.2525 13.6956 14.1177 13.7586 14.0191 13.8632C13.9205 13.9679 13.8656 14.1062 13.8656 14.25C13.8656 14.3938 13.9205 14.5321 14.0191 14.6368C14.1177 14.7414 14.2525 14.8044 14.396 14.813C15.659 14.813 16.292 14.592 16.292 13.811C16.292 13.551 16.2 13.317 16.012 12.978C15.967 12.895 15.651 12.359 15.556 12.186C15.161 11.462 14.958 10.831 14.958 10.125V6.75C14.958 3.47 12.395 0.936996 9.146 0.936996C5.897 0.936996 3.333 3.47 3.333 6.75V10.125C3.333 10.831 3.13 11.462 2.735 12.185C2.641 12.359 2.325 12.895 2.279 12.978C2.091 13.317 2 13.55 2 13.811C2 14.591 2.632 14.813 3.896 14.813H6.39C6.51975 15.4482 6.86492 16.019 7.36711 16.429C7.86931 16.839 8.4977 17.063 9.146 17.063V17.063Z" fill="white"/>
</mask>
<g mask="url(#mask0_101_7)">
<path d="M7.554 14.813H10.737C10.6202 15.1417 10.4045 15.4261 10.1195 15.6273C9.83457 15.8284 9.49431 15.9364 9.1455 15.9364C8.79669 15.9364 8.45643 15.8284 8.17146 15.6273C7.88649 15.4261 7.6708 15.1417 7.554 14.813V14.813ZM9.146 17.063C9.89188 17.0627 10.6071 16.7662 11.1344 16.2387C11.6618 15.7112 11.958 14.9959 11.958 14.25C11.958 14.1009 11.8988 13.9578 11.7935 13.8522C11.6881 13.7467 11.5451 13.6873 11.396 13.687H3.896C3.586 13.687 3.355 13.673 3.197 13.647C3.215 13.611 3.237 13.57 3.263 13.524C3.299 13.459 3.617 12.919 3.723 12.724C4.2 11.849 4.458 11.048 4.458 10.125V6.75C4.458 4.094 6.515 2.062 9.146 2.062C11.776 2.062 13.833 4.094 13.833 6.75V10.125C13.833 11.048 14.091 11.849 14.569 12.725C14.675 12.919 14.993 13.459 15.029 13.524C15.055 13.57 15.076 13.611 15.094 13.647C14.937 13.673 14.705 13.687 14.396 13.687C14.2525 13.6956 14.1177 13.7586 14.0191 13.8632C13.9205 13.9679 13.8656 14.1062 13.8656 14.25C13.8656 14.3938 13.9205 14.5321 14.0191 14.6368C14.1177 14.7414 14.2525 14.8044 14.396 14.813C15.659 14.813 16.292 14.592 16.292 13.811C16.292 13.551 16.2 13.317 16.012 12.978C15.967 12.895 15.651 12.359 15.556 12.186C15.161 11.462 14.958 10.831 14.958 10.125V6.75C14.958 3.47 12.395 0.936996 9.146 0.936996C5.897 0.936996 3.333 3.47 3.333 6.75V10.125C3.333 10.831 3.13 11.462 2.735 12.185C2.641 12.359 2.325 12.895 2.279 12.978C2.091 13.317 2 13.55 2 13.811C2 14.591 2.632 14.813 3.896 14.813H6.39C6.51975 15.4482 6.86492 16.019 7.36711 16.429C7.86931 16.839 8.4977 17.063 9.146 17.063V17.063Z" stroke="#333333" stroke-width="0.3"/>
<path fill-rule="evenodd" clip-rule="evenodd" d="M0 0H18V18H0V0Z" fill="#333333"/>
</g>
</svg>

<svg xmlns="https://www.w3.org/2000/svg" xmlns:xlink="https://www.w3.org/1999/xlink" width="18" height="18" viewBox="0 0 18 18">
  <defs>
    <path id="bpnpn3yn0a" d="M7.554 14.813h3.183a1.689 1.689 0 01-3.183 0zm1.592 2.25a2.813 2.813 0 002.812-2.813.563.563 0 00-.562-.563h-7.5c-.31 0-.541-.014-.699-.04.018-.036.04-.077.066-.123.036-.065.354-.605.46-.8.477-.875.735-1.676.735-2.599V6.75c0-2.656 2.057-4.688 4.688-4.688 2.63 0 4.687 2.032 4.687 4.688v3.375c0 .923.258 1.724.736 2.6.106.194.424.734.46.799.026.046.047.087.065.123-.157.026-.389.04-.698.04a.564.564 0 000 1.126c1.263 0 1.896-.221 1.896-1.002 0-.26-.092-.494-.28-.833-.045-.083-.361-.619-.456-.792-.395-.724-.598-1.355-.598-2.061V6.75c0-3.28-2.563-5.813-5.812-5.813S3.333 3.47 3.333 6.75v3.375c0 .706-.203 1.337-.598 2.06-.094.174-.41.71-.456.793-.188.339-.279.572-.279.833 0 .78.632 1.002 1.896 1.002H6.39a2.813 2.813 0 002.756 2.25z"></path>
  </defs>
  <g fill="none" fill-rule="evenodd">
    <g transform="translate(-1079 -16) translate(224 7) translate(855 9)">
      <mask id="1dencd96ob" fill="#fff">
        <use xlink:href="#bpnpn3yn0a"></use>
      </mask>
      <use fill-rule="nonzero" stroke="currentColor" stroke-width=".3" xlink:href="#bpnpn3yn0a"></use>
      <g fill="currentColor" mask="url(#1dencd96ob)">
        <path d="M0 0H18V18H0z"></path>
      </g>
    </g>
  </g>
</svg>
